Systematic/src/svg/Nvidia - Shield TV.svg

<svg xmlns="http://www.w3.org/2000/svg" xml:space="preserve" width="330.667" height="213.333"><defs><clipPath id="a" clipPathUnits="userSpaceOnUse"><path d="M0 256h256V0H0Z"/></clipPath><clipPath id="b" clipPathUnits="userSpaceOnUse"><path d="M4 208h248V48H4Z"/></clipPath></defs><g clip-path="url(#a)" transform="matrix(1.33333 0 0 -1.33333 -5.333 277.333)"><g clip-path="url(#b)" style="opacity:.5"><path d="M0 0h-248v-160H0V-8z" style="fill:#fff;fill-opacity:1;fill-rule:nonzero;stroke:none" transform="translate(252 208)"/></g></g><path d="M244 56H12v144h232z" style="fill:#262626;fill-opacity:1;fill-rule:nonzero;stroke:none" transform="matrix(1.33333 0 0 -1.33333 -5.333 277.333)"/><path d="m0 0-64-108L-4 0Z" style="fill:#191919;fill-opacity:1;fill-rule:nonzero;stroke:none" transform="matrix(1.33333 0 0 -1.33333 96 58.667)"/><path d="m0 0 176-107.449L232 0Z" style="fill:#191919;fill-opacity:1;fill-rule:nonzero;stroke:none" transform="matrix(1.33333 0 0 -1.33333 10.667 11.401)"/><path d="m0 0-60-108V35.449Z" style="fill:#404040;fill-opacity:1;fill-rule:nonzero;stroke:none" transform="matrix(1.33333 0 0 -1.33333 90.667 58.667)"/><path d="m0 0-20-32h76Z" style="fill:#0d0d0d;fill-opacity:1;fill-rule:nonzero;stroke:none" transform="matrix(1.33333 0 0 -1.33333 245.333 160)"/><path d="m0 0 56-28h-76Z" style="fill:#333;fill-opacity:1;fill-rule:nonzero;stroke:none" transform="matrix(1.33333 0 0 -1.33333 245.333 165.333)"/><path d="m0 0-36-68-116 72 116-76Z" style="fill:#0f0;fill-opacity:1;fill-rule:nonzero;stroke:none" transform="matrix(1.33333 0 0 -1.33333 293.333 64)"/></svg>

<?xml version="1.0" encoding="UTF-8" standalone="no"?>
<svg
   xmlns:dc="http://purl.org/dc/elements/1.1/"
   xmlns:cc="http://creativecommons.org/ns#"
   xmlns:rdf="http://www.w3.org/1999/02/22-rdf-syntax-ns#"
   xmlns:svg="http://www.w3.org/2000/svg"
   xmlns="http://www.w3.org/2000/svg"
   viewBox="0 0 330.66665 213.33333"
   height="213.33333"
   width="330.66666"
   xml:space="preserve"
   id="svg2"
   version="1.1"><metadata
     id="metadata8"><rdf:RDF><cc:Work
         rdf:about=""><dc:format>image/svg+xml</dc:format><dc:type
           rdf:resource="http://purl.org/dc/dcmitype/StillImage" /></cc:Work></rdf:RDF></metadata><defs
     id="defs6"><clipPath
       id="clipPath18"
       clipPathUnits="userSpaceOnUse"><path
         id="path16"
         d="M 0,256 H 256 V 0 H 0 Z" /></clipPath><clipPath
       id="clipPath26"
       clipPathUnits="userSpaceOnUse"><path
         id="path24"
         d="M 4,208 H 252 V 48 H 4 Z" /></clipPath></defs><g
     transform="matrix(1.3333333,0,0,-1.3333333,-5.3333332,277.33333)"
     id="g10"><g
       id="g12"><g
         clip-path="url(#clipPath18)"
         id="g14"><g
           id="g20"><g
             id="g22" /><g
             id="g34"><g
               style="opacity:0.5"
               id="g32"
               clip-path="url(#clipPath26)"><g
                 id="g30"
                 transform="translate(252,208)"><path
                   id="path28"
                   style="fill:#ffffff;fill-opacity:1;fill-rule:nonzero;stroke:none"
                   d="m 0,0 h -8 -232 -8 v -8 -144 -8 h 8 232 8 v 8 144 z" /></g></g></g></g></g></g><path
       id="path36"
       style="fill:#262626;fill-opacity:1;fill-rule:nonzero;stroke:none"
       d="M 244,56 H 12 v 144 h 232 z" /><g
       transform="translate(76,164)"
       id="g38"><path
         id="path40"
         style="fill:#191919;fill-opacity:1;fill-rule:nonzero;stroke:none"
         d="M 0,0 -64,-108 -4,0 Z" /></g><g
       transform="translate(12,199.4492)"
       id="g42"><path
         id="path44"
         style="fill:#191919;fill-opacity:1;fill-rule:nonzero;stroke:none"
         d="M 0,0 176,-107.449 232,0 Z" /></g><g
       transform="translate(72,164)"
       id="g46"><path
         id="path48"
         style="fill:#404040;fill-opacity:1;fill-rule:nonzero;stroke:none"
         d="M 0,0 -60,-108 V 35.449 Z" /></g><g
       transform="translate(188,88)"
       id="g50"><path
         id="path52"
         style="fill:#0d0d0d;fill-opacity:1;fill-rule:nonzero;stroke:none"
         d="M 0,0 -20,-32 H 56 Z" /></g><g
       transform="translate(188,84)"
       id="g54"><path
         id="path56"
         style="fill:#333333;fill-opacity:1;fill-rule:nonzero;stroke:none"
         d="M 0,0 56,-28 H -20 Z" /></g><g
       transform="translate(224,160)"
       id="g58"><path
         id="path60"
         style="fill:#00ff00;fill-opacity:1;fill-rule:nonzero;stroke:none"
         d="M 0,0 -36,-68 -152,4 -36,-72 Z" /></g></g></svg>
